assets/img/juno_logo.svg

<?xml version="1.0" encoding="utf-8"?>
<!-- Generator: Adobe Illustrator 26.0.1, SVG Export Plug-In . SVG Version: 6.00 Build 0)  -->
<svg version="1.1" id="Layer_1" xmlns="http://www.w3.org/2000/svg" xmlns:xlink="http://www.w3.org/1999/xlink" x="0px" y="0px"
	 viewBox="0 0 360 95.7" style="enable-background:new 0 0 360 95.7;" xml:space="preserve">
<path class="st0" d="M226,27.8c0,12.9,0,26.4,0,39.3c-0.3-0.1-0.4-0.2-0.5-0.4c-8.9-12.7-17.8-25.3-26.6-38
	c-0.4-0.6-0.9-0.9-1.7-0.9c-1.5,0.1-6,0-6,0l0,49.7l6.4,0c0,0,0-26.5,0-39.4c0.1,0,0.2,0,0.3-0.1c2.5,3.5,4.9,7,7.4,10.4
	c6.6,9.3,13.1,18.6,19.6,27.9c0.4,0.6,0.9,0.9,1.7,0.9c1.6-0.1,6,0,6,0s0-34.1,0-49.6L226,27.8z"/>
<path class="st0" d="M150.6,27.8c0,0,0,18.3,0,26.9c0,1.6-0.1,3.3-0.3,4.9c-0.8,7.3-5.5,11.6-12.6,11.8c-6.2,0.2-11-3.3-12.5-9.2
	c-0.6-2.2-0.8-4.6-0.8-6.9c0-8.8,0-27.5,0-27.5h-6.3c0,0,0,18.8,0.1,27.7c0,2.6,0.2,5.2,0.7,7.7c1.1,5.8,4.4,10.1,9.9,12.5
	c4.1,1.8,8.4,2,12.7,1.4c4.2-0.6,7.9-2.3,10.8-5.5c3.3-3.7,4.5-8.2,4.6-13c0.1-9.9,0.1-20.8,0.1-30.8L150.6,27.8z"/>
<path class="st0" d="M77.4,27.8l6.4,0c0,0,0,22.3,0,32.8c0,3.2-0.5,6.4-2.1,9.3c-2.2,4-5.5,6.5-10.1,7c-5.6,0.7-10.7-0.6-14.6-4.9
	c-1.6-1.8-2.6-3.9-3-6.4c1.9-0.4,5.7-1.3,5.7-1.3s0.3,0.8,0.4,1.1c1.8,5.1,6.8,6.9,11.6,5.5c3.5-1.1,4.9-3.9,5.5-7.3
	c0.2-1.3,0.3-2.7,0.3-4C77.4,49.4,77.4,27.8,77.4,27.8z"/>
<g>
	<path class="st0" d="M281.5,35.8c4.9,0,9.5,1.6,13.4,4.7c4.6,3.6,7.4,8.8,8.1,14.5c1.3,11.1-6.2,21.4-17,23.8
		c0.5-0.1,1.1-0.1,1.6-0.2c6.7-0.8,12.8-4.2,17-9.5s6.1-12,5.3-18.7c0,0,0,0,0,0c-0.8-6.7-4.2-12.8-9.5-17c-5.3-4.2-12-6.1-18.7-5.3
		c-6.7,0.8-12.8,4.2-17,9.5c-4.2,5.3-6.1,12-5.3,18.7c0.1,0.9,0.3,1.9,0.5,2.9c-1-11.6,7.4-21.8,19-23.2
		C279.8,35.9,280.6,35.8,281.5,35.8z"/>
</g>
</svg>

<?xml version="1.0" encoding="UTF-8" standalone="no"?>
<!DOCTYPE svg PUBLIC "-//W3C//DTD SVG 1.1//EN" "http://www.w3.org/Graphics/SVG/1.1/DTD/svg11.dtd">
<svg width="100%" height="100%" viewBox="0 0 360 96" version="1.1" xmlns="http://www.w3.org/2000/svg" xmlns:xlink="http://www.w3.org/1999/xlink" xml:space="preserve" xmlns:serif="http://www.serif.com/" style="fill-rule:evenodd;clip-rule:evenodd;stroke-linejoin:round;stroke-miterlimit:2;">
    <g transform="matrix(1.36468,0,0,1.36468,-66.3853,-19.4007)">
        <path d="M226,27.8L226,67.1C225.7,67 225.6,66.9 225.5,66.7C216.6,54 207.7,41.4 198.9,28.7C198.5,28.1 198,27.8 197.2,27.8C195.7,27.9 191.2,27.8 191.2,27.8L191.2,77.5L197.6,77.5L197.6,38.1C197.7,38.1 197.8,38.1 197.9,38C200.4,41.5 202.8,45 205.3,48.4C211.9,57.7 218.4,67 224.9,76.3C225.3,76.9 225.8,77.2 226.6,77.2C228.2,77.1 232.6,77.2 232.6,77.2L232.6,27.6L226,27.8Z" style="fill-rule:nonzero;"/>
    </g>
    <g transform="matrix(1.36468,0,0,1.36468,-66.3853,-19.4007)">
        <path d="M150.6,27.8L150.6,54.7C150.6,56.3 150.5,58 150.3,59.6C149.5,66.9 144.8,71.2 137.7,71.4C131.5,71.6 126.7,68.1 125.2,62.2C124.6,60 124.4,57.6 124.4,55.3L124.4,27.8L118.1,27.8C118.1,27.8 118.1,46.6 118.2,55.5C118.2,58.1 118.4,60.7 118.9,63.2C120,69 123.3,73.3 128.8,75.7C132.9,77.5 137.2,77.7 141.5,77.1C145.7,76.5 149.4,74.8 152.3,71.6C155.6,67.9 156.8,63.4 156.9,58.6C157,48.7 157,37.8 157,27.8L150.6,27.8Z" style="fill-rule:nonzero;"/>
    </g>
    <g transform="matrix(1.36468,0,0,1.36468,-66.3853,-19.4007)">
        <path d="M77.4,27.8L83.8,27.8L83.8,60.6C83.8,63.8 83.3,67 81.7,69.9C79.5,73.9 76.2,76.4 71.6,76.9C66,77.6 60.9,76.3 57,72C55.4,70.2 54.4,68.1 54,65.6C55.9,65.2 59.7,64.3 59.7,64.3C59.7,64.3 60,65.1 60.1,65.4C61.9,70.5 66.9,72.3 71.7,70.9C75.2,69.8 76.6,67 77.2,63.6C77.4,62.3 77.5,60.9 77.5,59.6C77.4,49.4 77.4,27.8 77.4,27.8Z" style="fill-rule:nonzero;"/>
    </g>
    <g transform="matrix(1.36468,0,0,1.36468,-66.3853,-19.4007)">
        <path d="M281.5,35.8C286.4,35.8 291,37.4 294.9,40.5C299.5,44.1 302.3,49.3 303,55C304.3,66.1 296.8,76.4 286,78.8C286.5,78.7 287.1,78.7 287.6,78.6C294.3,77.8 300.4,74.4 304.6,69.1C308.8,63.8 310.7,57.1 309.9,50.4C309.1,43.7 305.7,37.6 300.4,33.4C295.1,29.2 288.4,27.3 281.7,28.1C275,28.9 268.9,32.3 264.7,37.6C260.5,42.9 258.6,49.6 259.4,56.3C259.5,57.2 259.7,58.2 259.9,59.2C258.9,47.6 267.3,37.4 278.9,36C279.8,35.9 280.6,35.8 281.5,35.8Z" style="fill-rule:nonzero;"/>
    </g>
</svg>
